X: 8
T: Miss Sarah Drummond Of Perth
R: strathspey
M: 4/4
L: 1/8
K: Ador
|: A>f |e>AA>B c>de>d | g2 G>A B>AB>d |
e>AA>B c>de>d | g2 G>A B>A :|
|: (3efg |a2 e>a c>ae>f | g2 d>g B>gd>g |
[1 a2 e>a c>ae>f | g>ed>B B>A :|
[2 a>fg>e f>de>d | B>gd>B B>A |]


Tune 1556	Setting 14955

